svgs/regular/block-brick-fire.svg

<svg xmlns="http://www.w3.org/2000/svg" viewBox="0 0 640 512"><!--! Font Awesome Pro 6.3.0 by @fontawesome - https://fontawesome.com License - https://fontawesome.com/license (Commercial License) Copyright 2023 Fonticons, Inc. --><path d="M176 80v48h32 48 80V80H176zm-48 48V80H96c-8.8 0-16 7.2-16 16v32h48zM80 176v56H208V176H80zm0 160h48V280H80v56zm0 48v32c0 8.8 7.2 16 16 16H208V384H176 128 80zm96-48H288.8c-.5 4.7-.8 9.4-.8 14.1c0 11.5 1 22.9 3 33.9H256v48h50.1c8.1 17.5 18.8 33.7 31.5 48H96c-35.3 0-64-28.7-64-64V96c0-35.3 28.7-64 64-64H416c35.3 0 64 28.7 64 64v48.6c-1.7-1.5-3.3-3.1-5-4.6c-17.7-16-44.7-16-62.5-.1c-12.9 11.5-25.1 23.7-36.5 36.1H256v56h76c-2.4 3.6-4.7 7.2-6.9 10.7c-7.4 12-14.2 24.5-19.9 37.3H176v56zM432 128V96c0-8.8-7.2-16-16-16H384v48h48zm21.5 35.8c19.7 17.8 38.2 37 55.5 57.7c7.9-9.9 16.8-20.7 26.5-29.5c5.6-5.1 14.4-5.1 20 0c24.7 22.7 45.6 52.7 60.4 81.1c14.5 28 24.2 58.8 24.2 79C640 440 568.7 512 480 512c-89.7 0-160-72.1-160-159.8c0-26.4 12.7-60.7 32.4-92.6c20-32.4 48.1-66.1 81.4-95.8c2.8-2.5 6.4-3.8 10-3.7c3.5 0 7 1.3 9.8 3.8zM530 433c30-21 38-63 20-96c-2-4-4-8-7-12l-36 42s-58-74-62-79c-30 37-45 58-45 82c0 49 36 78 81 78c18 0 34-5 49-15z"/></svg>

<svg xmlns="http://www.w3.org/2000/svg" viewBox="0 0 640 512"><!--! Font Awesome Pro 6.2.0 by @fontawesome - https://fontawesome.com License - https://fontawesome.com/license (Commercial License) Copyright 2022 Fonticons, Inc. --><path d="M176 336H288.8C288.3 340.7 288 345.4 288 350.1C288 361.6 289 372.9 290.1 384H256V432H306.1C314.2 449.5 324.8 465.7 337.6 480H96C60.65 480 32 451.3 32 416V96C32 60.65 60.65 32 96 32H416C451.3 32 480 60.65 480 96V144.6C478.3 143 476.7 141.5 474.1 139.1C457.3 124 430.2 123.1 412.5 139.9C399.5 151.4 387.3 163.5 375.9 176H256V232H332C329.6 235.6 327.4 239.2 325.2 242.7C317.8 254.7 310.1 267.2 305.2 280H176V336zM176 128H336V80H176V128zM128 128V80H96C87.16 80 80 87.16 80 96V128H128zM80 176V232H208V176H80zM128 336V280H80V336H128zM80 384V416C80 424.8 87.16 432 96 432H208V384H80zM432 128V96C432 87.16 424.8 80 416 80H384V128H432zM509 221.5C516.9 211.6 525.8 200.8 535.5 191.1C541.1 186.9 549.9 186.9 555.5 192C580.2 214.7 601.1 244.7 615.8 273.2C630.4 301.2 640 329.9 640 350.1C640 437.9 568.7 512 480 512C390.3 512 320 437.8 320 350.1C320 323.7 332.7 291.5 352.4 259.5C372.4 227.2 400.5 193.4 433.8 163.7C439.4 158.7 447.1 158.8 453.5 163.8C473.3 181.6 491.8 200.7 509 221.5V221.5zM550 336.1C548 332.1 546 328.1 543 324.1L507 367C507 367 448.1 293 444.1 288C415 324.1 400 346 400 370C400 419 436 448 480.1 448C499 448 515 443 530 432.1C560 412 568 370 550 336.1z"/></svg>
